X:38
T:Sunbury Common
M:C|
L:1/8
B:Thompson's Compleat Collection of 200 Favourite Country Dances, vol. 1 (London, 1757)
Z:Transcribed and edited by Fynnian Titford-Mock, 2007
Z:abc's:AK/Fiddler's Companion
K:A
A3c c2 Bd|dcBA BGFE|A3c c2 Bd|dcBA {^d}e2 E2::e2 ae f2 e2|defg aef"tr"e|
e2 ae "tr"f2e2|{f}e2 {d}c2 c2B2|"tr"ecBA fdcB|ecBA fdcB|ecBA dBAG|E2G2 [A,4E4A4]:|

